!!!COM:	L. van BEETHOVEN
!!!OTL:	String Quartet Op.18 No.5
**kern	**dynam
*I"Violin 2	*
*clefG2	*
*k[f#c#g#]	*
*A:	*
*M6/8	*
=1	=1
!LO:TX:a:B:t=Allegro	!
4r	.
8r	.
4e	sf
8r	.
=2	=2
4r	.
8r	.
4e	sf
8r	.
=3	=3
4r	.
8r	.
4e	sf
8r	.
=4	=4
2.r	.
=5	=5
(2.f#	p
=6	=6
[2.g#)	.
=7	=7
(4.g#	.
[4.a	.
=8	=8
4.a	.
4.g)	.
=9	=9
(2.f#	.
=10	=10
2.g#)	.
=11	=11
4a	.
8r	.
4r	.
8r	.
=12	=12
8r	.
8e	p
8e	.
4r	.
8r	.
=13	=13
8r	.
8c#	.
8c#	.
4r	.
8r	.
=14	=14
8r	.
8d	.
8d	.
8r	.
8e	.
8e	.
=15	=15
8r	.
8A	.
8A	.
4r	.
8r	.
=16	=16
8r	.
8e	.
8e	.
4r	.
8r	.
=17	=17
8r	.
!LO:TX:t=cresc.	!
8c#	<
8c#	.
8r	.
8g	.
8g	.
=18	=18
8r	.
8f#	.
8f#	.
8r	.
8f	.
8f	[
=19	=19
4e	p
8r	.
4r	.
8r	.
=20	=20
8r	.
(8cc#	.
8b	.
8cc#L	.
8a	.
8b)	.
=21	=21
4b	.
8r	.
4r	.
8r	.
=22	=22
8r	.
!LO:TX:t=cresc.	!
(8cc#	<
8b	.
8cc#L	.
8a)	.
8a	.
=23	=23
4g#	f
8r	.
4g#	.
8r	.
=24	=24
4g#	.
8r	.
8r	.
8r	.
8B	p
=25	=25
4g	.
8d#	.
4e	.
8B	.
=26	=26
(4c	sf
16d	.
16c)	.
4B	.
8r	.
=27	=27
(4B	.
8d#	.
4e	.
8f#)	.
=28	=28
(4f#	.
8e	.
4d#)	.
8r	.
=29	=29
(4G	.
8A	.
4B)	.
(8B	.
=30	=30
4c	.
8d	.
4e)	.
8cc	.
=31	=31
(8ccL	.
8b)	.
8a	.
(8aL	.
8g)	.
8f#	.
=32	=32
(4.f#	.
8gL)	.
8r	.
8b	f
=33	=33
4gg	.
8dd#	.
4ee	.
8b	.
=34	=34
(4cc	sf
16dd	.
16cc)	.
4b	.
8b	p
=35	=35
(4b	.
8dd#	.
4ee	.
8ff#)	.
=36	=36
(4ff#	.
8ee	.
4dd#)	.
8r	.
=37	=37
(4g#	pp
8a	.
4b)	.
(8b	<
=38	=38
4cc#	>
8dd	.
4ee)	]
8r	.
=39	=39
2.r	.
=40	=40
2.r	.
=41	=41
8r	.
8r	.
(8g#	pp
4a)	.
[8a	.
=42	=42
(4a	.
8g#	.
4f#	.
8d#)	.
=43	=43
(4e	pp
8f#)	.
8g#L	.
8f#	.
8e	.
=44	=44
4d#	.
8c#	.
4B	.
8r	.
=45	=45
(4f#	.
8g#)	.
8aL	.
8g#	.
8f#	.
=46	=46
4e	.
8d#	.
4c#	.
8r	.
=47	=47
(4g#	.
8a#)	.
8bL	.
8a#	.
8g#	.
=48	=48
(8aL	f
8d#)	.
8e	.
8f#L	.
8g#	.
8a	.
=49	=49
8bJ	p
(8bL	.
8g#)	.
8r	.
(8cc#	.
8a)	.
=50	=50
8r	.
(8g#	.
8e)	.
8r	.
(8f#	.
8d#)	.
=51	=51
8eL	f
8e	.
8f#	.
8g#L	.
8f#	.
8e	.
=52	=52
4d#	.
8c#	.
4B	.
8r	.
=53	=53
(4f#	sf
8g#)	.
8aL	.
8g#	.
8f#	.
=54	=54
4e	.
8d#	.
4c#	.
8r	.
=55	=55
(4g#	f
8a#)	.
8bL	.
8a#	.
8g#	.
=56	=56
4a	sf
8g#	.
8f#L	.
8e	.
8d#	.
=57	=57
4a	sf
8g#	.
8f#L	.
8e	.
8d#	.
=58	=58
8aL	sf
8aa	.
8gg#	.
8ff#L	.
8ee	.
8dd#	.
=59	=59
8eeJ	.
(8eL	.
8ee)	.
8r	.
(8e	.
8ee)	.
=60	=60
8r	.
(8e	.
8ee)	.
8r	.
(8e	.
8ee)	.
=61	=61
[4.g#	sf
8g#L	.
8a	.
8a	.
=62	=62
4g#	.
8r	.
4r	.
8r	.
=63	=63
[4.g#	sf
8g#L	.
8a	.
8a	.
=64	=64
4g#	.
8r	.
4r	.
8r	.
=65	=65
[4.g#	sf
4g#	.
8a	.
=66	=66
4g#	.
8r	.
4r	.
8r	.
=67	=67
2.r	.
=68	=68
[4.g#	sfp
8g#L	.
8a	.
8b	.
=69	=69
8cc#L	.
8e#	.
8f#	.
(8eL	.
8f#)	.
8d#	.
=70	=70
4e	.
8r	.
!LO:TX:t=cresc.	!
(4e	<
8e)	.
=71	=71
(4e	.
8e)	.
(4e	.
8e)	[
=72	=72
[4.dd	f
8ddL	.
8cc#	.
8cc#	.
=73	=73
8cc#L	.
8b	.
8a	.
(8g#L	.
8a)	.
8a	.
=74	=74
8g#J	p
(8G#L	.
8B)	.
8r	.
(8A	.
8B)	.
=75	=75
8r	.
(8e	.
8g#)	.
8r	.
(8f#	.
8a)	.
=76	=76
8r	.
(8G#	.
8B)	.
8r	.
(8A	.
8B)	.
=77	=77
8r	.
(8e	.
8g#)	.
8r	.
(8f#	.
8a)	.
=78	=78
8r	.
(8e	.
8g#)	.
8r	.
(8e	.
8g#)	.
=79	=79
4e	.
8r	.
4r	.
8r	.
=80:|!	=80:|!
4e	.
8r	.
4r	.
8r	.
=81	=81
4r	.
8r	.
!LO:TX:t=cresc.	!
(4c#	<
8c#)	.
=82!|:	=82!|:
(4c#	.
8c#)	.
(4c#	.
8c#)	[
=83	=83
[4.b	f
8bL	.
8a	.
8g#	.
=84	=84
4f#	.
8r	.
4r	.
8r	.
=85	=85
[4.g#	sf
8g#L	.
8a	.
8b	.
=86	=86
4cc#	.
8r	.
4r	.
8r	.
=87	=87
[4.ee	sf
8eeL	.
8ff#	.
8gg	.
=88	=88
4aa	.
8r	.
4r	.
8r	.
=89	=89
[4.a	pp
8aL	.
8a	.
8a	.
=90	=90
8aJ	.
(8ddL	.
8a)	.
8r	.
(8b	.
8g)	.
=91	=91
8r	.
(8f#	.
8d)	.
8r	.
(8e	.
8c#)	.
=92	=92
[2.d	.
=93	=93
2.c [2.d	.
=94	=94
2.B 2.d	.
=95	=95
[2.c# [2.e	.
=96	=96
4.c# 4.e	.
[4.d	.
=97	=97
(4.d	.
4.c 4.d	.
=98	=98
2.B 2.d	.
=99	=99
2.c#)	.
=100	=100
4d	.
8r	.
4r	.
8r	.
=101	=101
4r	.
8r	.
(16c#LL	p
16d	.
16e	.
16f#	.
16g	.
16e)	.
=102	=102
4f#	.
8r	.
(16dLL	f
16e	.
16f#	.
16g	.
16a	.
16f#)	.
=103	=103
4g	.
8r	.
4a	.
8r	.
=104	=104
4d	.
8r	.
(16dLL	p
16e	.
16f#	.
16g	.
16a	.
16f#)	.
=105	=105
4g	.
8r	.
(16ALL	.
16B	.
16c#	.
16d	.
16e	.
16c#)	.
=106	=106
4d	.
8r	.
4r	.
8r	.
=107	=107
2.r	.
=108	=108
2.r	.
=109	=109
4r	.
8r	.
8AL	p
8c#	.
8c#	.
=110	=110
8BL	.
8d	.
8d	.
8c#L	.
8e	.
8e	.
=111	=111
8dL	.
8f	.
8f	.
8eL	.
8g	.
8g	.
=112	=112
8r	.
!LO:TX:t=cresc.	!
8f	<
8f	.
8r	.
8f	.
8f	.
=113	=113
8r	.
8f	.
8f	.
8r	.
8f	.
8f	.
=114	=114
4f	[
8r	.
(16ffLL	sf
16ee)	.
16dd	.
16cc	.
16b	.
16dd	.
=115	=115
4g#	.
8r	.
4r	.
8r	.
=116	=116
8r	.
!LO:TX:t=cresc.	!
8c	<
8c	.
8r	.
8c	.
8c	.
=117	=117
8r	.
8c	.
8c	.
8r	.
8c	.
8c	[
=118	=118
[2.c	f
=119	=119
8cL	.
(8cc	.
8b	.
8aL	.
8b	.
8cc)	.
=120	=120
4b	.
8r	.
(4.b	p
=121	=121
4.a	.
4.g#)	.
=122	=122
8aL	.
8e	.
8e	.
8eeL	.
8e	.
8e	.
=123	=123
8ddL	.
8e	.
8e	.
8ccL	.
8e	.
8e	.
=124	=124
4g#	.
8r	.
(4.b	.
=125	=125
4.a	.
4.g#)	.
=126	=126
8aL	.
8e	.
8e	.
8eeL	.
8e	.
8e	.
=127	=127
8ddL	.
8e	.
8e	.
8ccL	.
8e	.
8e	.
=128	=128
4g#	.
8r	.
4r	.
8r	.
=129	=129
4r	.
8r	.
(4e	pp
8d)	.
=130	=130
[4.c#	.
4c#	.
(24c#	.
24d	.
24e	.
=131	=131
4f#	.
8e	.
4d	.
8c#)	.
=132	=132
[4.B	.
4B	.
(24G#LL	.
24A	.
24B	.
=133	=133
!LO:TX:t=cresc.	!
[4.c#)	<
4c#	.
(24c#	.
24d	.
24e)	.
=134	=134
(4e	.
8d	.
4c#	.
8B)	.
=135	=135
2.c#	f
=136	=136
[4.d	sf
8dL	.
8g#	.
8g#	.
=137	=137
4a	.
8r	.
4e	sf
8r	.
=138	=138
4r	.
8r	.
4e	sf
8r	.
=139	=139
4r	.
8r	.
4e	sf
8r	.
=140	=140
2.r	.
=141	=141
(2.f#	p
=142	=142
[2.g#)	.
=143	=143
(4.g#	.
[4.a	.
=144	=144
4.a	.
4.g)	.
=145	=145
(2.f#	.
=146	=146
2.g#)	.
=147	=147
4a	.
8r	.
4r	.
8r	.
=148	=148
8r	.
8e	p
8e	.
4r	.
8r	.
=149	=149
8r	.
8c#	.
8c#	.
4r	.
8r	.
=150	=150
8r	.
8d	.
8d	.
8r	.
8e	.
8e	.
=151	=151
8r	.
8A	.
8A	.
4r	.
8r	.
=152	=152
8r	.
!LO:TX:t=cresc.	!
8f#	<
8f#	.
8r	.
8g	.
8g	.
=153	=153
8r	.
8g#	.
8g#	.
8r	.
8a	.
8a	.
=154	=154
8r	.
8b-	.
8b-	.
8r	.
8b	.
8b	[
=155	=155
8r	.
8d	f
8d	.
8r	.
8e	.
8e	.
=156	=156
8r	.
8b	p
8b	.
8r	.
8cc	.
8cc	.
=157	=157
8r	.
8e	f
8e	.
8r	.
8f	.
8f	.
=158	=158
8r	.
8c	p
8c	.
8r	.
8c	.
8c	.
=159	=159
8r	.
8c	.
8c	.
8r	.
8c	.
8c	.
=160	=160
4B	.
8r	.
4r	.
8r	.
=161	=161
8r	.
(8cc#	.
8b	.
8cc#L	.
8a	.
8b)	.
=162	=162
4b	.
8r	.
4r	.
8r	.
=163	=163
8r	.
!LO:TX:t=cresc.	!
(8cc#	<
8b	.
8cc#L	.
8a	.
8a)	.
=164	=164
4g#	f
8r	.
4g#	.
8r	.
=165	=165
4g#	.
8r	.
4r	.
8e	p
=166	=166
4cc	.
8g#	.
4a	.
8e	.
=167	=167
(4f	sf
16g	.
16f	.
4e)	.
8r	.
=168	=168
(4e	.
8g#	.
4a)	.
8b	.
=169	=169
(4b	.
8a	.
4g#)	.
8r	.
=170	=170
(4c	.
8d	.
4e)	.
(8g	.
=171	=171
4f	.
8g	.
4a)	.
8ff	.
=172	=172
(8ffL	.
8ee)	.
8dd	.
(8ddL	.
8cc#)	.
8b	.
=173	=173
(4.b	.
4cc)	.
8e	f
=174	=174
4cc	.
8g#	.
4a	.
8e	.
=175	=175
(4f	sf
16g	.
16f)	.
4e	.
8ee	p
=176	=176
(4ee	.
8gg#	.
4aa	.
8bb)	.
=177	=177
(4bb	.
8aa	.
4gg#)	.
8r	.
=178	=178
(4cc#	pp
8dd	.
4ee)	.
8a	.
=179	=179
[4.a	.
4a	.
8r	.
=180	=180
2.r	.
=181	=181
2.r	.
=182	=182
8r	.
8r	.
(8cc#	.
4dd)	.
[8dd	.
=183	=183
(4dd	.
8cc#	.
4b	.
8g#)	.
=184	=184
(4a	pp
8b)	.
8cc#L	.
8b	.
8a	.
=185	=185
4g#	.
8f#	.
4e	.
8r	.
=186	=186
(4b	.
8cc#)	.
8ddL	.
8cc#	.
8b	.
=187	=187
4a	.
8g#	.
4f#	.
8r	.
=188	=188
(4cc#	.
8dd#)	.
8eeL	.
8dd#	.
8cc#	.
=189	=189
(8ddL	f
8g#)	.
8a	.
8bL	.
8cc#	.
8dd	.
=190	=190
8eeJ	p
(8eeL	.
8cc#)	.
8r	.
(8ff#	.
8dd)	.
=191	=191
8r	.
(8cc#	.
8a)	.
8r	.
(8b	.
8g#)	.
=192	=192
8aL	f
8a	.
8b	.
8cc#L	.
8b	.
8a	.
=193	=193
4g#	.
8f#	.
4e	.
8r	.
=194	=194
(4b	sf
8cc#)	.
8ddL	.
8cc#	.
8b	.
=195	=195
4a	.
8g#	.
4f#	.
8r	.
=196	=196
(4cc#	sf
8dd#)	.
8eeL	.
8dd#	.
8cc#	.
=197	=197
4dd	sf
8cc#	.
8bL	.
8a	.
8g#	.
=198	=198
4dd	sf
8cc#	.
8bL	.
8a	.
8g#	.
=199	=199
8ddL	sf
8dd	.
8cc#	.
8bL	.
8a	.
8g#	.
=200	=200
8aJ	.
(8aL	.
8aa)	.
8r	.
(8a	.
8aa)	.
=201	=201
8r	.
(8a	.
8aa)	.
8r	.
(8a	.
8aa)	.
=202	=202
[4.c#	sf
8c#L	.
8d	.
8d	.
=203	=203
4c#	.
8r	.
4r	.
8r	.
=204	=204
[4.c#	sf
8c#	.
8d	.
8d	.
=205	=205
4c#	.
8r	.
4r	.
8r	.
=206	=206
[4.c#	sf
8c#L	.
8d	.
8d	.
=207	=207
4c#	.
8r	.
4r	.
8r	.
=208	=208
2.r	.
=209	=209
[4.cc#	sfp
8cc#L	.
8dd	.
8ee	.
=210	=210
8aL	.
8a#	.
8b	.
(8aL	.
8b)	.
8g#	.
=211	=211
4a	.
8r	.
(4A	<
8A)	.
=212	=212
(4A	.
8A)	.
(4A	.
8A)	[
=213	=213
[4.gg	f
8ggL	.
8ff#	.
8ff#	.
=214	=214
8ff#L	.
8ee	.
8dd	.
(8cc#L	.
8dd)	.
8dd	.
=215	=215
8cc#J	p
(8c#L	.
8e)	.
8r	.
(8d	.
8e)	.
=216	=216
8r	.
(8a	.
8cc#)	.
8r	.
(8b	.
8dd)	.
=217	=217
8r	.
(8c#	.
8e)	.
8r	.
(8d	.
8e)	.
=218	=218
8r	.
(8a	.
8cc#)	.
8r	.
(8b	.
8dd)	.
=219	=219
8r	.
(8a	.
8cc#)	.
8r	.
(8a	.
8cc#)	.
=220	=220
4a	.
8r	.
4r	.
8r	.
=221	=221
4r	.
8r	.
!LO:TX:t=cresc.	!
(4c#	.
8c#)	.
=222:|!	=222:|!
4a	f
8r	.
(16aLL	.
16b	.
16cc#	.
16dd	.
16ee	.
16cc#)	.
=223	=223
8aL	p
8b	.
8cc#	.
4r	.
8r	.
=224	=224
8cc#L	.
8dd	.
8ee	.
4r	.
8r	.
=225	=225
!LO:TX:t=cresc.	!
8aL	<
8b	.
8cc#	.
8cc#L	.
8dd	.
8ee	.
=226	=226
8eeL	.
8ff#	.
8gg#	.
4aa	[
8r	.
=227	=227
4r	.
8r	.
4e 4dd	f
8r	.
=228	=228
4e 4cc#	.
8r	.
4r	.
8r	.
=229	=229
*M3/4	*
!LO:TX:a:B:t=Menuetto	!
4r	.
=230	=230
4r	.
(4cc#	p
4a)	.
=231	=231
4r	.
(4g#	.
4e)	.
=232	=232
4r	.
(4c#	.
4A)	.
=233	=233
4e	.
4r	.
4r	.
=234	=234
4r	.
(4cc#	.
4a)	.
=235	=235
4r	.
(4a	.
4f#)	.
=236	=236
4r	.
(4ff#	.
4dd#)	.
=237	=237
4r	.
(4b	.
4a)	.
=238	=238
4r	.
(4g#	.
4e)	.
=239	=239
4r	.
(4cc#	.
4b)	.
=240	=240
(4a	.
4f#)	.
4b	.
=241	=241
4e	.
4r	.
4r	.
=242	=242
4r	.
(4A	p
4c#)	.
=243	=243
4r	.
(4e	.
4g#)	.
=244	=244
4r	.
(4a	.
4cc#)	.
=245	=245
4ee	.
4r	.
4r	.
=246	=246
4r	.
(4A	.
4c#)	.
=247	=247
4r	.
(4c#	.
4a)	.
=248	=248
4r	.
(4d#	.
4f#)	.
=249	=249
4r	.
(4f#	.
4b)	.
=250	=250
4r	.
(4e	.
4g#)	.
=251	=251
4r	.
(4g#	.
4ee)	.
=252	=252
4r	.
4cc#	.
4a	.
=253	=253
4g#	.
4r	.
4r	.
=254!|:	=254!|:
(2.B	p
=255	=255
2.c#)	.
=256	=256
4d	.
4r	.
4r	.
=257	=257
2.r	.
=258	=258
(2.b	p
=259	=259
2.cc#)	.
=260	=260
4dd	.
4r	.
4r	.
=261	=261
2.r	.
=262	=262
4r	.
(4b	p
4dd)	.
=263	=263
4r	.
(4a	.
4cc#)	.
=264	=264
4r	.
(4e	.
4cc#)	.
=265	=265
4r	.
(4e	.
4cc#)	.
=266	=266
4r	.
(4e	.
4g#)	.
=267	=267
4r	.
4G#	.
4G#	.
=268	=268
!LO:TX:t=cresc.	!
(2.G#	<
=269	=269
2.c#)	.
=270	=270
[2.B#	.
=271	=271
2B#	.
(8AL	.
8G#)	.
=272	=272
2.G#	.
=273	=273
4e	ff
4e	.
4e	.
=274	=274
2.r	.
=275	=275
2.r	.
=276	=276
4r	.
(4cc#	p
4a)	.
=277	=277
4r	.
(4g#	.
4e)	.
=278	=278
4r	.
(4c#	.
4A)	.
=279	=279
4e	.
4r	.
4r	.
=280	=280
4r	.
(4cc#	.
4a)	.
=281	=281
4r	.
(4a	.
4f#)	.
=282	=282
4r	.
(4ff#	.
4dd#)	.
=283	=283
4r	.
(4b	.
4a)	.
=284	=284
4r	.
(4g	.
4e)	.
=285	=285
4r	.
(4b	.
4g)	.
=286	=286
4r	.
4a	.
4A	.
=287	=287
4d	.
4r	.
4r	.
=288	=288
4r	.
4r	.
4c#	p
=289	=289
2.a	.
=290	=290
2.e	.
=291	=291
(8gL	.
8f#)	.
(8e	.
8d)	.
(8c#	.
8d)	.
=292	=292
(8dL	.
8c#)	.
(8B	.
8A)	.
(8G#	.
8A)	.
=293	=293
2.a	.
=294	=294
(8c#L	.
8a)	.
8cc#	.
8a	.
8ee	.
8cc#	.
=295	=295
4dd	.
4r	.
[4a	<
=296	=296
!LO:TX:t=cresc.	!
2a	.
[4f#	.
=297	=297
2f#	.
[4dd	.
=298	=298
4dd	.
4g#	.
[4ee	.
=299	=299
2ee	.
[4a	.
=300	=300
2a	.
4cc#	.
=301	=301
(4ff#	f
4dd)	.
4dd	.
=302	=302
4cc#	.
4r	.
4r	.
=303	=303
2.g#	p
=304	=304
2.a	.
=305	=305
4g#	.
4b	.
4g#	.
=306	=306
4e	.
4r	.
4r	.
=307	=307
!LO:TX:t=cresc.	!
2.e 2.b	<
=308	=308
2.e 2.cc#	.
=309	=309
[4f#	sfp
8f#L	.
8dd	.
8dd	.
8dd	.
=310	=310
4cc#	.
4r	.
4r	.
=311:|!	=311:|!
4cc#	.
4r	.
=!|:	=!|:
!LO:TX:a:B:t=Trio	!
4e	.
=312	=312
(4c#	.
4e	.
4a)	sf
=313	=313
(4a	.
4g#	.
4a)	sf
=314	=314
4b	.
(qqcc#	.
8bL	.
8a#	.
8b	.
8cc#)	.
=315	=315
(4b	.
4a)	.
([4a	sf
=316	=316
4a	.
4g#)	.
([4g	sf
=317	=317
4g	.
4f#)	.
4g#	sf
=318	=318
(4a	.
4f#)	.
4b	.
=319	=319
4e	.
4r	.
=:|!|:	=:|!|:
4r	.
=320	=320
[2.e	.
=321	=321
[2.e	.
=322	=322
4e	.
(4e	.
4d#	.
=323	=323
4e)	.
(8dd#L	.
8ee)	.
(8dd#	.
8ee)	.
=324	=324
!LO:TX:t=cresc.	!
(4ee	<
4b	.
4cc#	.
=325	=325
4dd	.
4a	.
4b	.
=326	=326
4cc#	.
4b	.
4a	.
=327	=327
4g#)	[
4r	.
(4e	p
=328	=328
4c#	.
4e	.
4a)	sf
=329	=329
(4a	.
4g#	.
4a)	sf
=330	=330
4b	.
(qqcc#	.
8bL	.
8a#	.
8b	.
8cc#)	.
=331	=331
(4b	.
4a)	.
[4a	sf
=332	=332
(4a	.
4g#)	.
[4g	sf
=333	=333
(4g	.
4f#)	.
[4b	sf
=334	=334
(4b	.
4a	.
4g#)	.
=335	=335
!LO:TX:a:B:t=Menuetto D.C.	!
4a	.
4r	.
=336	=336
*k[f#c#]	*
*D:	*
*M2/4	*
!LO:TX:a:B:t=Andante cantabile	!
8r	.
=337	=337
4a	p
(8gL	.
8f#)	.
=338	=338
(8eL	.
8d)	.
[4c#	.
=339	=339
8c#L	.
(8c#	.
8d	.
8e)	.
=340	=340
(8f#L	.
8g)	.
4a	.
=341	=341
4a	.
(8gL	.
8f#)	.
=342	=342
(8eL	.
8d)	.
[4c#	.
=343	=343
(8c#L	.
16.B	.
32A)	.
(8BL	.
8d)	.
=344	=344
(qqc#	.
qqd)	.
qqe	.
4d	.
8c#L)	.
=:|!|:	=:|!|:
8r	.
=345	=345
[2d	.
=346	=346
4.d	.
(8d	.
=347	=347
!LO:TX:t=cresc.	!
8dL	<
8e	.
16gLL	.
16f#	.
16e	.
16f#)	.
=348	=348
(8gL	.
8b	.
8a)	.
8r	[
=349	=349
4ff#	p
(8eeL	.
8dd)	.
=350	=350
(8cc#L	.
8b)	.
(8eeL	.
8dd	.
=351	=351
8cc#L	.
8b	.
8a	.
8g)	.
=352	=352
([4A 4g	.
8AL) 8f#	.
=:|!|:	=:|!|:
!LO:TX:a:B:t=Var. 1.	!
8r	.
=353	=353
2r	.
=354	=354
2r	.
=355	=355
2r	.
=356	=356
4r	.
8r	.
16.a	p
32a	.
=357	=357
4ff#	.
qqgg	.
qqff#	.
qqee	.
qqff#	.
16ggLL	.
16ee	.
16ff#	.
16dd	.
=358	=358
!LO:TX:t=cresc.	!
[4ee	<
16eeLL	.
16cc#	.
16cc	.
16cc	.
=359	=359
16eLL 16cc#	[
16e 16cc#	sf
16r	.
16e 16cc#	sf
16r	.
16e 16dd	sf
16r	.
16b	sf
=360	=360
(4g#	p
8aL)	.
=:|!|:	=:|!|:
8r	.
=361	=361
2r	.
=362	=362
(4g	p
8aL	.
8b-)	.
=363	=363
8aL	.
8r	.
4r	.
=364	=364
4r	.
8r	.
16.d	p
32d	.
=365	=365
4ff#	.
(qqgg	.
qqff#)	.
qqee	.
qqff#	.
16ggLL	.
16ee	.
16ff#	.
16dd	.
=366	=366
!LO:TX:t=cresc.	!
16cc#LL	<
16a	.
16dd	.
16a	.
16eeLL	.
16a	.
16ff#	.
16a	.
=367	=367
16ggLL	[
16A 16g	sf
16r	.
16A 16g	sf
16r	.
16A 16g	sf
16r	.
16c#	sf
=368	=368
(4c#	p
8dL)	.
=:|!|:	=:|!|:
!LO:TX:a:B:t=Var. 2.	!
8r	.
=369	=369
16f#	pp
16r	.
16f#	.
16r	.
4r	.
=370	=370
8gL	.
8g	.
4r	.
=371	=371
8eL	.
8e	.
4r	.
=372	=372
8f#L	.
8f#	.
4r	.
=373	=373
8f#L	.
8r	.
8eL	.
8d	.
=374	=374
8eL	.
8r	.
8dL	.
8c#	.
=375	=375
8dL	.
8r	.
8dL	.
8r	.
=376	=376
24r	.
24d	.
24c#	.
24d	.
24e	.
24d	.
8c#L	.
=:|!|:	=:|!|:
8r	.
=377	=377
8f#L 8a	.
8f# 8a	.
4r	.
=378	=378
8.bL	<
16g	.
8e#L	>
16f#	.
16r	]
=379	=379
8f#L 8a	.
8f# 8a	.
4r	.
=380	=380
(8.bL	<
16g	.
8e#L	>
16f#)	.
16r	]
=381	=381
8f#L	pp
8f#	.
4r	.
=382	=382
8gL	.
8g	.
4r	.
=383	=383
8AL 8g	.
8r	.
8AL 8g	.
8r	.
=384	=384
24r	.
24g	.
24f#	.
24g	.
24a	.
24g	.
8f#L	.
=:|!	=:|!
!LO:TX:a:B:t=Var. 3.	!
8r	.
=385!|:	=385!|:
(32f#LLL	p
32a)	.
(32b	.
32a)	.
(32bLLL	.
32a)	.
(32b	.
32a)	.
(32gLLL	.
32a)	.
(32b	.
32a)	.
(32f#LLL	.
32a)	.
(32b	.
32a)	.
=386	=386
(32eLLL	.
32a)	.
(32b	.
32a)	.
(32bLLL	.
32a)	.
(32b	.
32a)	.
(32bLLL	.
32a)	.
(32b	.
32a)	.
(32bLLL	.
32a)	.
(32b	.
32a)	.
=387	=387
(32cc#LLL	.
32a)	.
(32b	.
32a)	.
(32bLLL	.
32a)	.
(32b	.
32a)	.
(32ddLLL	.
32a)	.
(32b	.
32a)	.
(32gLLL	.
32a)	.
(32b	.
32a)	.
=388	=388
(32f#LLL	.
32a)	.
(32b	.
32a)	.
(32bLLL	.
32a)	.
(32b	.
32a)	.
(32bLLL	.
32a)	.
(32b	.
32a)	.
(32bLLL	.
32a)	.
(32b	.
32a)	.
=389	=389
(32f#LLL	.
32a)	.
(32f#	.
32a)	.
(32f#LLL	.
32a)	.
(32f#	.
32a)	.
(32eLLL	.
32a)	.
(32e	.
32a)	.
(32dLLL	.
32a)	.
(32d	.
32a)	.
=390	=390
!LO:TX:t=cresc.	!
(32c#LLL	<
32a)	.
(32cc#	.
32a)	.
(32cc#LLL	.
32a)	.
(32cc#	.
32a)	.
(32cc#LLL	.
32a)	.
(32cc#	.
32a)	.
(32cc#LLL	.
32a)	.
(32cc#	.
32a)	.
=391	=391
(32cc#LLL	.
32a	.
32cc#	.
32a	.
32ddLLL	.
32a	.
32dd	.
32a	.
32bLLL	.
32a	.
32b	.
32a	.
32g#LLL	.
32a	.
32b	.
32g#)	[
=392	=392
(32cc#LLL	p
32a	.
32dd	.
32b	.
32eeLLL	.
32cc#	.
32ff#	.
32dd	.
32ggLLL	.
32ff#	.
32ee	.
32dd	.
32cc#LLL	.
32b	.
32a	.
32g)	.
=393:|!|:	=393:|!|:
(32f#LLL	.
32a)	.
(32f#	.
32a)	.
(32f#LLL	.
32a)	.
(32f#	.
32a)	.
(32f#LLL	.
32a)	.
(32f#	.
32a)	.
(32f#LLL	.
32a)	.
(32f#	.
32a)	.
=394	=394
(32gLLL	.
32b)	.
(32g	.
32b)	.
(32gLLL	.
32b)	.
(32g	.
32b)	.
(32f#LLL	.
32a)	.
(32f#	.
32a)	.
(32f#LLL	.
32a)	.
(32f#	.
32a)	.
=395	=395
(32aLLL	.
32dd)	.
(32a	.
32dd)	.
(32aLLL	.
32dd)	.
(32a	.
32dd)	.
(32aLLL	.
32dd)	.
(32a	.
32dd)	.
(32aLLL	.
32dd)	.
(32a	.
32dd)	.
=396	=396
(32bLLL	.
32dd)	.
(32b	.
32dd)	.
(32bLLL	.
32dd)	.
(32b	.
32dd)	.
(32aLLL	.
32dd)	.
(32a	.
32dd)	.
(32aLLL	.
32dd)	.
(32a	.
32dd)	.
=397	=397
(32f#LLL	.
32a)	.
(32f#	.
32a)	.
(32f#LLL	.
32a)	.
(32f#	.
32a)	.
(32eLLL	.
32a)	.
(32e	.
32a)	.
(32dLLL	.
32a)	.
(32d	.
32a)	.
=398	=398
!LO:TX:t=cresc.	!
(32c#LLL	<
32a)	.
(32c#	.
32a)	.
(32c#LLL	.
32a)	.
(32c#	.
32a)	.
(32c#LLL	.
32a)	.
(32d	.
32a)	.
(32eLLL	.
32a)	.
(32f#	.
32a)	.
=399	=399
(32gLLL	.
32a)	.
(32A	.
32a)	.
(32ALLL	.
32a)	.
(32A	.
32a)	.
(32ALLL	.
32a)	.
(32A	.
32a)	.
(32ALLL	.
32g)	.
(32A	.
32g)	[
=400	=400
(32gLLL	sf
32a	.
32cc#	.
32ee	.
32ggLLL	.
32ee	.
32cc#	.
32g)	.
(32f#LLL	p
32dd	.
32cc#	.
32b	.
32aLLL	.
32b	.
32g	.
32a)	.
=401:|!	=401:|!
(32gLLL	sf
32a	.
32cc#	.
32ee	.
32ggLLL	.
32ee	.
32cc#	.
32g)	.
8f#L	p
=!|:	=!|:
!LO:TX:a:B:t=Var. 4.	!
8r	.
=402	=402
!LO:TX:t=sempre pp	!
(4a	.
8bL)	.
(8b	.
=403	=403
8aL	.
8f	.
4e)	.
=404	=404
(4c#	.
8g#	.
8a#	.
=405	=405
8bL	.
8cc#	.
4dd)	.
=406	=406
(4f#	.
8bL	.
8g#	.
=407	=407
8aL	.
8e#)	.
[4f#	.
=408	=408
(8f#L	.
4e#	.
[8g#)	.
=409	=409
4g#	.
8f#L	.
=:|!|:	=:|!|:
8r	.
=410	=410
(4a	.
8gL	.
8f#)	.
=411	=411
(8bL	.
8g	.
4f#)	.
=412	=412
*^	*
(2cc	[2d	.
=413	=413	=413
8bL	2d	.
8dd	.	.
4a)	.	.
*v	*v	*
=414	=414
!LO:TX:t=cresc.	!
(4.a#	<
8b	.
=415	=415
8g#L	.
8e#	.
4f#)	.
=416	=416
4.g	pp
8A 8g	.
=417	=417
(4A 4g	.
8AL) 8f#	.
=:|!	=:|!
!LO:TX:a:B:t=Var. 5.	!
8aL	f
=418!|:	=418!|:
(8.ff#L	.
32gg	.
32ff#	.
16eeLL)	.
(32ff#	.
32ee	.
16ddLL)	.
(32ee	.
32dd	.
=419	=419
16cc#LL)	.
(32dd	.
32cc#	.
16bLL)	.
(32cc#	.
32b)	.
4a)	.
=420	=420
(8.aL	.
32g#	.
32a	.
16bLL)	.
(32a	.
32b	.
16cc#LL)	.
(32b	.
32cc#)	.
=421	=421
16ddLL	.
(32cc#	.
32dd	.
16eeLL)	.
(32dd	.
32ee	.
16ff#LL)	.
(32a	.
32b	.
16cc#LL)	.
(32dd	.
32ee	.
=422	=422
8.ff#L	.
32gg	.
32ff#)	.
16eeLL	.
(32ff#	.
32ee	.
16ddLL)	.
(32ee	.
32dd	.
=423	=423
16ccLL)	.
(32dd	.
32cc	.
16bLL)	.
(32cc	.
32b	.
[4a)	.
=424	=424
(8aL	.
16.g#	.
32f#	.
8g#L	.
8b	.
=425	=425
(qqa#	.
qqb)	.
qqcc#	.
4b	.
8aJ)	.
8aJ	.
=426:|!	=426:|!
(qqa#	.
qqb)	.
qqcc#)	.
4b)	.
8aJ	.
8aJ	.
=427!|:	=427!|:
(8.ddL	.
32cc#	.
32dd)	.
16eeLL	.
(32dd	.
32ee	.
16ff#LL)	.
(32ee	.
32ff#)	.
=428	=428
16ggLL	.
(32gg	.
32aa	.
16bbLL)	.
(32bb	.
32ccc#	.
8dddL)	.
8r	.
=429	=429
(8.dL	.
32c#	.
32d	.
16eLL)	.
(32d	.
32e	.
16f#LL)	.
(32e	.
32f#	.
=430	=430
16gLL)	.
(32g	.
32a	.
16bLL)	.
(32b	.
32cc#	.
16ddLL)	.
(32a	.
32b	.
16cc#LL)	.
(32dd	.
32ee	.
=431	=431
8.ff#L	.
32gg	.
32ff#	.
16eeLL)	.
(32ff#	.
32ee	.
16ddLL)	.
(32ee	.
32dd	.
=432	=432
16cc#LL)	.
(32dd	.
32cc#	.
16bLL)	.
(32cc#	.
32b	.
4a)	.
=433	=433
(8.aL	.
32g#	.
32a	.
16bLL)	.
(32a	.
32b	.
16cc#LL)	.
(32b	.
32cc#	.
=434	=434
4ee	.
8ddJ)	.
8aL	.
=435:|!	=435:|!
8ddL	.
8r	.
4r	.
=436	=436
2r	.
=437	=437
4dd	pp
(8ccL	.
8b-)	.
=438	=438
(8aL	.
8g)	.
4f	.
=439	=439
4dd	.
(8ddL	.
8b-)	.
=440	=440
!LO:TX:t=cresc.	!
(4a	<
4a-)	.
=441	=441
[4g	p
16gLL	.
16a	.
16b	.
16cc	.
=442	=442
[4f	.
16fLL	.
16g	.
16a	.
16b-	.
=443	=443
!LO:TX:t=cresc.	!
16dLL	<
16dd	.
16dd	.
16dd	.
16ddLL	.
16dd	.
16ee	.
16dd	.
=444	=444
16cc#LL	.
(16A	.
16c#	.
16A	.
16dLL	.
16A	.
16e	.
16A)	.
=445	=445
16f#LL	pp
16A 16f#	.
16A 16f#	.
16A 16f#	.
16ALL 16f#	.
16A 16f#	.
16A 16f#	.
16A 16f#	.
=446	=446
16ALL 16g	.
16A 16g	.
16A 16g	.
16A 16g	.
16ALL 16g	.
16A 16g	.
16A 16g	.
16A 16g	.
=447	=447
16ALL 16f#	.
16A 16f#	.
16A 16f#	.
16A 16f#	.
16ALL 16f#	.
16A 16f#	.
16A 16f#	.
16A 16f#	.
=448	=448
16ALL 16e	.
16A 16e	.
16A 16e	.
16A 16e	.
16ALL 16e	.
16A 16e	.
16A 16e	.
16A 16e	.
=449	=449
16ALL	.
16dd	.
16dd	.
16dd	.
16ALL	.
16dd	.
16dd	.
16dd	.
=450	=450
16ALL	.
16cc#	.
16A	.
16ee	.
16ALL	.
16ee	.
16A	.
16ee	.
=451	=451
16ALL	.
16dd	.
16dd	.
16dd	.
16ALL	.
16dd	.
16dd	.
16dd	.
=452	=452
!LO:TX:t=cresc.	!
16ALL	<
16cc#	.
16cc#	.
16cc#	.
16ccLL	.
16cc	.
16cc	.
16cc	[
=453	=453
16bLL	p
16ff#	.
16gg	.
16aa	.
[4gg	.
=454	=454
16ggLL	.
16ee	.
16ff#	.
16gg	.
4ff#	.
=455	=455
16r	.
16d	.
16e	.
16f#	.
16gLL	.
16a	.
8b	.
=456	=456
16r	.
16cc	.
16a	.
16g	.
16f#LL	.
16e	.
8d	.
=457	=457
16r	.
16d	.
16e	.
16f#	.
16gLL	.
16a	.
16b	.
16cc#	.
=458	=458
!LO:TX:t=cresc.	!
(8ddL	<
8dd)	.
[4dd	.
=459	=459
16ddLL	p
16dd	.
16cc	.
16g#	.
[4a	.
=460	=460
16aLL	.
16cc	.
16b	.
16f#	.
4g	.
=461	=461
16r	.
16f	.
16d	.
16A	.
[4g	.
=462	=462
16gLL	.
16e	.
16f#	.
16g	.
[4f#	.
=463	=463
!LO:TX:t=cresc.	!
16f#LL	<
16dd#	.
16ee	.
16ff#	.
[4gg	.
=464	=464
16gg	.
16cc#	.
16dd	.
16ee	.
[4ff#	.
=465	=465
16ff#LL	.
16ee	.
16dd	sf
16cc#	.
16eeLL	.
16dd	.
16cc#	sf
16b	.
=466	=466
16ddLL	.
16cc#	.
16b	sf
16a	.
16cc#LL	.
16b	.
16a	sf
16g	[
=467	=467
4c#	f
4d	f
=468	=468
4d	f
4c#	f
=469	=469
!LO:TX:a:B:t=Poco Adagio	!
2r	[
=470	=470
2r	.
=471	=471
4a	pp
(8g#L	.
8g)	.
=472	=472
(8f#L	.
8e)	.
(16dLL	.
16e	.
16f#	.
16g)	.
=473	=473
[2a	pp
=474	=474
(16a	.
16b	.
16cc#	.
16dd	.
!LO:TX:t=cresc.	!
16eeLL	.
16ff#	.
[8gg)	.
=475	=475
4ff#	.
[4e	<
=476	=476
8e	>
(8e	.
8eL	]
8e)	.
=477	=477
8f#L	.
16.r	.
32d	.
8dL	.
16.r	.
32d	pp
=478	=478
2d	.
=479	=479
*k[f#c#g#]	*
*A:	*
*M2/2	*
!LO:TX:a:B:t=q =165	!
!LO:TX:a:B:t=Allegro	!
8r	.
4r	.
=480	=480
1r	.
=481	=481
8r	.
8e	p
8f#	.
8e	.
(4a	.
4cc#)	.
=482	=482
(4.dd	.
8b)	.
(4.cc#	.
8a)	.
=483	=483
(4.dd	.
8b)	.
(4.cc#	.
8a)	.
=484	=484
4g#	.
4g#	.
4a	.
4a	.
=485	=485
[2g#	.
8g#L	.
8r	.
4r	.
=486	=486
8r	.
8b	.
8a#	.
8b	.
[2d	.
=487	=487
4d	.
(4G#	.
4B	.
4d)	.
=488	=488
(4.c#	.
8e)	.
(4.d	.
8e)	.
=489	=489
(4.c#	.
8e)	.
(4.B	.
8e)	.
=490	=490
(4.c#	.
8e)	.
(4.d	.
8e)	.
=491	=491
(2.c#	.
4g#	.
=492	=492
4a	.
4g#	.
4b	.
4a)	.
=493	=493
(2.g#	.
4a#	.
=494	=494
4b	.
4a#	.
4cc#	.
4b)	.
=495	=495
8aJ	.
8eL	.
8f#	.
8e	.
2ee	.
=496	=496
1r	.
=497	=497
8r	.
8e	.
8f#	.
8e	.
2ee	.
=498	=498
1r	.
=499	=499
8r	.
8cc#	.
8dd	.
8cc#	.
([2ff#	.
=500	=500
2ff#	.
[2ee)	.
=501	=501
8eeJ	.
8eeL	.
8ff#	.
8ee	.
([2dd#	.
=502	=502
2dd#	.
[2cc#)	.
=503	=503
8cc#L	.
8cc#	.
8dd#	.
8cc#	.
[2b	.
=504	=504
8bL	.
8b	.
8cc#	.
8b	.
2a#	.
=505	=505
8bL	.
(8b	.
8cc#	.
8b)	.
8a#L	.
(8a	.
8b	.
8a)	.
=506	=506
8g#L	.
(8g#	.
8a	.
8g#)	.
8gL	.
(8g	.
8a	.
8g)	.
=507	=507
4f#	.
4r	.
([2ff#	.
=508	=508
2ff#	.
2ee)	.
=509	=509
8dd#L	.
(8b	.
8cc#	.
8b)	.
8a#L	.
(8a	.
8b	.
8a)	.
=510	=510
8g#L	.
(8g#	.
8a	.
8g#)	.
8gL	.
(8g	.
8a	.
8g)	.
=511	=511
!LO:TX:t=cresc.	!
4f#	<
4r	.
([2ff#	.
=512	=512
2ff#	.
2ee)	.
=513	=513
8dd#L	f
(8dd#	.
8ff#	.
8ee)	.
8dd#L	.
(8dd#	.
8ff#	.
8ee)	.
=514	=514
4dd#	.
4r	.
2r	.
=515	=515
1r	.
=516	=516
(1e	pp
=517	=517
1d#)	.
=518	=518
1d	.
=519	=519
!LO:TX:t=cresc.	!
(2c#	<
2d	.
=520	=520
2d#	.
2e)	.
=521	=521
2c#	p
2c#	.
=522	=522
4B	.
4r	.
2r	.
=523	=523
(4gg#	p
4ff#	.
4ee	.
4dd#	.
=524	=524
4cc#	.
4b	.
4a	.
4g#)	.
=525	=525
(1f#	.
=526	=526
1b)	.
=527	=527
4e	.
4r	.
2r	.
=528	=528
4r	.
!LO:TX:t=cresc.	!
(2f#	<
4e)	[
=529	=529
4c#	p
(4cc#	.
4b	.
4a)	.
=530	=530
4g#	.
4r	.
(4b	.
4a	.
=531	=531
4g#)	.
4f#	.
(4d#	.
4e	.
=532	=532
4f#	.
4g#)	.
(4b	.
4a	.
=533	=533
4g#	.
4f#)	.
(4d#	.
4e	.
=534	=534
4f#	.
4g#)	.
(4e#	.
4f#	.
=535	=535
4g#	.
4a)	.
!LO:TX:t=cresc.	!
(4g#	<
4a	.
=536	=536
4b	.
4e	.
4g#)	.
4e	.
=537	=537
(4f#	.
4B	.
4e	.
4d#)	.
=538	=538
2r	[
4e	p
4e	sf
=539	=539
4e	.
4e	sf
4a	.
4g#	sf
=540	=540
1f#	sf
=541	=541
4B	.
4c#	.
4G#	.
4A	.
=542	=542
4g#	.
4f#	sf
4a	.
4g#	sf
=543	=543
4cc#	.
4b	sf
4a	.
4g#	sf
=544	=544
4a	f
4r	.
2r	.
=545	=545
1r	.
=546	=546
(4ff#	pp
4dd#	.
4cc#	.
[4ee	.
=547	=547
4ee	.
4cc#	.
4b	.
[4dd	.
=548	=548
4dd	.
4b	.
4a	.
4cc#	.
=549	=549
4g#	.
4b	.
4a	.
4b)	.
=550	=550
4g#	p
4r	.
2r	.
=551	=551
4r	.
4d	.
4d	.
4d	.
=552	=552
4c#	.
4r	.
2r	.
=553	=553
4r	.
4a	.
4a	.
4a	.
=554	=554
4g#	.
4r	.
2r	.
=555	=555
4r	.
4dd	.
4dd	.
4dd	.
=556	=556
4cc#	.
4r	.
2r	.
=557	=557
4r	.
4a	.
4a	.
4a	.
=558	=558
4g#	.
4r	.
2r	.
=559	=559
4r	.
4d#	.
4d#	.
4d#	.
=560	=560
8eL	.
8g#	.
8b	.
8ee	.
(8gg#L	.
8ee)	.
8b	.
8g#	.
=561	=561
(1a	.
=562	=562
4g#)	.
4r	.
2r	.
=563	=563
4r	.
4d#	.
4d#	.
4d#	.
=564	=564
8eL	.
8g#	.
8b	.
8ee	.
(8gg#L	.
8ee)	.
8b	.
8g#	.
=565	=565
(1a	.
=566	=566
4g#)	.
4r	.
2r	.
=567	=567
4r	.
(8a	.
8f#	.
8aL	.
8f#	.
8a	.
8f#)	.
=568	=568
4g#	.
4r	.
2r	.
=569	=569
4r	.
(8a	.
8f#	.
8aL	.
8f#	.
8a	.
8f#)	.
=570	=570
!LO:TX:t=cresc.	!
2g#	<
[2G#	.
=571	=571
(2G#	.
2B)	.
=572	=572
[1d	p
=573	=573
[2d	.
8dL	.
=574:|!	=574:|!
(1d	p
=575	=575
[2c#)	>
8c#L	]
=||	=||
8r	.
4r	.
=576	=576
1r	.
=577	=577
8r	.
8c#	f
8d	.
8c#	.
(4f#	.
4a)	.
=578	=578
(2b	sf
2a)	.
=579	=579
(2b	sf
2a)	.
=580	=580
4e	.
4g#	.
4g#	.
4g#	.
=581	=581
(1g#	p
=582	=582
!LO:TX:t=cresc.	!
1g)	<
=583	=583
4f#	f
4r	.
8r	.
8a	.
8b	.
8a	.
=584	=584
4dd	.
(2f#	.
4a)	.
=585	=585
(4.g	sf
8a)	.
(4.f#	.
8a)	.
=586	=586
(4.g	sf
8a)	.
(4.f#	.
8a)	.
=587	=587
(4.g	sf
8a)	.
4f#	.
(4ff#	.
=588	=588
2gg	.
2ff#	.
=589	=589
2ee	.
[2dd	.
=590	=590
2dd	.
2cc#	.
=591	=591
8aL)	.
8dd	.
8cc#	.
8dd	.
(8ddL	.
8ff)	.
8ee	.
8dd	.
=592	=592
(8ddL	.
8cc)	.
8b	.
8cc	.
(8ccL	.
8b-)	.
8a	.
8b-	.
=593	=593
(8b-L	.
8a)	.
8g#	.
8a	.
(8aL	.
8g)	.
8f#	.
8g	.
=594	=594
(8gL	.
8f)	.
8e	.
8f	.
(8fL	.
8e)	.
8d#	.
8e	.
=595	=595
4d	.
4r	.
2r	.
=596	=596
1r	.
=597	=597
2r	.
8r	.
8a	ff
8g#	.
8a	.
=598	=598
(8aL	.
8g#)	.
8f#	.
8g#	.
(8g#L	.
8f)	.
8e	.
8f	.
=599	=599
4e	.
4r	.
2r	.
=600	=600
1r	.
=601	=601
2r	.
8r	.
8ee	.
8dd#	.
8ee	.
=602	=602
(8eeL	.
8dd)	.
8cc#	.
8dd	.
(8ddL	.
8cc)	.
8b	.
8cc	.
=603	=603
8bJ	.
8bL	.
8cc	.
8b	.
[2dd	sf
=604	=604
8ddJ	.
8ccL	.
8dd	.
8cc	.
[2ee	sf
=605	=605
8eeJ	.
8ddL	.
8ee	.
8dd	.
4ff	.
4ee	.
=606	=606
4dd#	.
4dd	.
4cc#	.
4cc	.
=607	=607
8bJ	.
8ddL	.
8ee	.
8dd	.
[2ff	sf
=608	=608
8ffJ	.
8eeL	.
8ff	.
8ee	.
[2gg	sf
=609	=609
8ggJ	.
8ffL	.
8gg	.
8ff	.
4aa	.
4gg	.
=610	=610
4ff#	.
4ff	.
4ee	.
4ee-	.
=611	=611
4dd	.
4cc	ff
4b	.
4cc	.
=612	=612
4b	.
4r	.
2r	.
=613	=613
([1c	p
=614	=614
1c	.
=615	=615
1B	.
=616	=616
4c)	.
4r	.
2r	.
=617	=617
8r	.
(8g	pp
8a	.
8g)	.
[2cc	.
=618	=618
8ccL	.
(8cc	.
8dd	.
8cc)	.
[2ff	.
=619	=619
4ff	.
4B	.
4c	.
4d	.
=620	=620
4e	.
4g#	.
4a	.
4b	.
=621	=621
[2cc	.
8ccL	.
(8cc	.
8dd	.
8cc)	.
=622	=622
[2ff	.
8ffL	.
(8ff	.
8gg	.
8ff)	.
=623	=623
[2ee	.
8eeL	.
(8dd	.
8cc	.
8b)	.
=624	=624
(8ccL	.
8b	.
8a	.
8g#	.
8aL	.
8cc	.
8b	.
8a)	.
=625	=625
8gJ	.
(8bL	.
8cc	.
8b)	.
[2ee	.
=626	=626
[2ee	.
8eeL	.
(8ee	.
8ff#	.
8ee)	.
=627	=627
1dd#	.
=628	=628
[2dd	.
8ddL	.
(8dd	.
8ee	.
8dd)	.
=629	=629
!LO:TX:t=cresc.	!
(2cc#	<
8ccL)	.
(8cc	.
8dd	.
8cc)	.
=630	=630
2b	.
8b-L	.
(8b-	.
8cc	.
8b-)	.
=631	=631
[2a	.
8aL	.
(8a	.
8g#	.
8a)	.
=632	=632
4b	.
(2f	.
4f#)	.
=633	=633
4e	[
4r	.
2r	.
=634	=634
(1g#	p
=635	=635
1a	.
=636	=636
4cc)	.
4cc	.
4cc	.
4cc	.
=637	=637
4b	.
4r	.
8r	.
(8e	.
8d#	.
8e)	.
=638	=638
[2f	.
8fL	.
(8f	.
8g	.
8f)	.
=639	=639
[2e	.
8eL	.
(8e	.
8f	.
8e)	.
=640	=640
4d#	.
4d#	.
4d#	.
4d#	.
=641	=641
4e	.
4r	.
4r	.
4b	.
=642	=642
4cc	.
4cc	.
4cc	.
4cc	.
=643	=643
4b	.
4r	.
8r	.
(8e	.
8f	.
8e)	.
=644	=644
4d#	.
4d#	.
4d#	.
4d#	.
=645	=645
!LO:TX:t=cresc.	!
1e	<
=646	=646
1g#	.
=647	=647
[1b	p
=648	=648
[2b	.
8bL	.
8r	.
4r	.
=649	=649
1r	.
=650	=650
8r	.
8e	.
8f#	.
8e	.
4a	.
4cc#	.
=651	=651
(4.dd	.
8b)	.
(4.cc#	.
8a)	.
=652	=652
(4.dd	.
8b)	.
(4.cc#	.
8a)	.
=653	=653
4g#	.
4g#	.
4a	.
4a	.
=654	=654
[2g#	.
8g#L	.
8r	.
4r	.
=655	=655
8r	.
8b	.
8a#	.
8b	.
[2d	.
=656	=656
4d	.
(4G#	.
4B	.
4d)	.
=657	=657
(4.c#	.
8e)	.
(4.d	.
8e)	.
=658	=658
(4.c#	.
8e)	.
(4.B	.
8e)	.
=659	=659
(4.c#	.
8e)	.
(4.d	.
8e)	.
=660	=660
(2.c#	.
4g#	.
=661	=661
4a	.
4g#	.
4b	.
4a)	.
=662	=662
(2.g#	.
4a#	.
=663	=663
4b	.
4a#	.
4cc#	.
4b)	.
=664	=664
4a	.
4r	.
2r	.
=665	=665
1r	.
=666	=666
1r	.
=667	=667
1r	.
=668	=668
!LO:TX:t=cresc.	!
(2.dd	<
4cc#	.
=669	=669
4dd	.
4cc#	.
4ee	.
4dd)	.
=670	=670
(2.cc#	.
4dd	.
=671	=671
4ee	.
4dd	.
4ff#	.
4ee)	.
=672	=672
8ddL	[
8ff#	p
8gg	.
8ff#	.
([2bb	.
=673	=673
2bb	.
[2aa)	.
=674	=674
8aaL	.
8aa	.
8bb	.
8aa	.
([2gg#	.
=675	=675
2gg#	.
[2ff#)	.
=676	=676
8ff#L	.
8ff#	.
8gg#	.
8ff#	.
[2ee	.
=677	=677
8eeL	.
8ee	.
8ff#	.
8ee	.
2dd#	.
=678	=678
8eeL	.
(8ee	.
8ff#	.
8ee)	.
8dd#L	.
(8dd	.
8ee	.
8dd)	.
=679	=679
8cc#L	.
(8cc#	.
8dd	.
8cc#)	.
8ccL	.
(8cc	.
8dd	.
8cc)	.
=680	=680
4b	.
4r	.
([2bb	.
=681	=681
2bb	.
2aa)	.
=682	=682
8gg#L	.
(8ee	.
8ff#	.
8ee)	.
8dd#L	.
(8dd	.
8ee	.
8dd)	.
=683	=683
8cc#L	.
(8cc#	.
8dd	.
8cc#)	.
8ccL	.
(8cc	.
8dd	.
8cc)	.
=684	=684
4b	.
4r	.
!LO:TX:t=cresc.	!
([2bb	<
=685	=685
2bb	.
2aa)	.
=686	=686
8gg#L	f
(8gg#	.
8bb	.
8aa)	.
8gg#L	.
(8gg#	.
8bb	.
8aa)	.
=687	=687
4gg#	.
4r	.
2r	.
=688	=688
1r	.
=689	=689
(1A	pp
=690	=690
1G#	.
=691	=691
1A#)	.
=692	=692
!LO:TX:t=cresc.	!
(2c#	<
[2B)	.
=693	=693
(2B	.
2A)	.
=694	=694
4f#	p
4r	.
4f#	.
4r	.
=695	=695
4B	.
4r	.
4r	.
4e	.
=696	=696
(1cc#	.
=697	=697
1ff#)	.
=698	=698
(4b	.
4aa	.
4gg#	.
4ff#	.
=699	=699
4ee	.
4dd	.
4cc#	.
4b)	.
=700	=700
4a	.
4r	.
2r	.
=701	=701
4r	.
!LO:TX:t=cresc.	!
(2b	<
4a)	.
=702	=702
4f#	p
(4f#	.
4e	.
4d	.
=703	=703
4c#)	.
4r	.
(4ee	.
4dd	.
=704	=704
4cc#	.
4b)	.
(4g#	.
4a	.
=705	=705
4b	.
4cc#)	.
(4ee	.
4dd	.
=706	=706
4cc#	.
4b)	.
(4g#	.
4a	.
=707	=707
4b	.
4cc#)	.
(4a#	.
4b	.
=708	=708
4cc#	.
4dd)	.
!LO:TX:t=cresc.	!
(4cc#	<
4dd	.
=709	=709
2.a)	.
4a	.
=710	=710
4e	.
(4e	.
4a	.
4g#)	[
=711	=711
2r	.
4a	p
4a	sf
=712	=712
4a	.
4a	sf
4d	.
4c#	sf
=713	=713
[1e	sf
=714	=714
4e	.
4f#	.
4c#	.
4d	.
=715	=715
4cc#	.
4b	sf
4a	.
4a	sf
=716	=716
4a	.
4a	sf
4dd	.
4cc#	sf
=717	=717
4cc#	f
4r	.
2r	.
=718	=718
1r	.
=719	=719
(4bb	pp
4gg#	.
4ff#	.
[4aa	.
=720	=720
4aa	.
4ff#	.
4ee	.
[4gg	.
=721	=721
4gg	.
4ee	.
4dd	.
4ff#	.
=722	=722
4cc#	.
4ee	.
4dd	.
4ee)	.
=723	=723
4cc#	p
4r	.
2r	.
=724	=724
4r	.
4g	.
4g	.
4g	.
=725	=725
4f#	.
4r	.
2r	.
=726	=726
4r	.
4d	.
4d	.
4d	.
=727	=727
4c#	.
4r	.
2r	.
=728	=728
4r	.
4gg	.
4gg	.
4gg	.
=729	=729
4ff#	.
4r	.
2r	.
=730	=730
4r	.
4dd	.
4dd	.
4dd	.
=731	=731
4cc#	.
4r	.
2r	.
=732	=732
4r	.
4G#	.
4G#	.
4G#	.
=733	=733
8AL	.
8c#	.
8e	.
8a	.
(8cc#L	.
8a)	.
8e	.
8c#	.
=734	=734
(1d	.
=735	=735
4c#)	.
4r	.
2r	.
=736	=736
4r	.
4g#	.
4g#	.
4g#	.
=737	=737
8aL	.
8cc#	.
8ee	.
8aa	.
(8ccc#L	.
8aa)	.
8ee	.
8cc#	.
=738	=738
(1dd	.
=739	=739
4cc#)	.
4r	.
2r	.
=740	=740
4r	.
(8d	.
8B	.
8dL	.
8B	.
8d	.
8B)	.
=741	=741
4c#	.
4r	.
2r	.
=742	=742
4r	.
(8d	.
8B	.
8dL	.
8B	.
8d	.
8B)	.
=743	=743
!LO:TX:t=cresc.	!
(8bL	<
8g#	.
8b	.
8g#	.
8bL	.
8g#	.
8b	.
8g#	.
=744	=744
8bL	.
8g#	.
8b	.
8g#	.
8bL	.
8g#	.
8b	.
8g#)	[
=745	=745
4a	f
4r	.
2r	.
=746	=746
8r	.
8e	.
8f#	.
8e	.
(4a	.
4cc#)	.
=747	=747
(4.dd	sf
8b)	.
(4.cc#	.
8a)	.
=748	=748
(4.dd	sf
8b)	.
(4.cc#	.
8a)	.
=749	=749
4g#	sf
4g#	.
4a	.
4a	.
=750	=750
[2g#	.
8g#L	.
8r	.
4r	.
=751	=751
2r	.
(4.g	p
8a)	.
=752	=752
4f#	.
4r	.
2r	.
=753	=753
2r	.
(4.g	.
8a)	.
=754	=754
4f#	.
4r	.
2r	.
=755	=755
2r	.
(4.d	.
8e)	.
=756	=756
4c#	.
4r	.
2r	.
=757	=757
2r	.
(4.d	.
8e)	.
=758	=758
8c#L	.
8e	.
8f#	.
8e	.
[2a	.
=759	=759
8aL	.
8e	.
8f#	.
8e	.
[2a	.
=760	=760
8aL	.
8f#	.
8g	.
8f#	.
[2b	.
=761	=761
8bL	.
8g#	.
8b	.
8g#	.
2d	.
=762	=762
4c#	f
4r	.
8r	.
8a	.
8b	.
8a	.
=763	=763
[2ee	sf
8eeL	.
8ee	.
8dd	.
8cc#	.
=764	=764
[2b	sf
8bL	.
8b	.
8cc#	.
8b	.
=765	=765
[2dd	sf
8ddL	.
8dd	.
8b	.
8g#	.
=766	=766
4a	.
4r	.
2r	.
=767	=767
[2b	p
8bL	.
(8e	.
8f#	.
8e)	.
=768	=768
[2a	.
8aL	.
(8e	.
8f#	.
8e)	.
=769	=769
(8g#L	.
8e	.
8f#	.
8e	.
8g#L	.
8e	.
8f#	.
8e)	.
=770	=770
4a	.
4r	.
2r	.
=771	=771
(1dd	p
=772	=772
1cc#	.
=773	=773
1b)	.
=774	=774
4a	.
4r	.
2r	.
=775	=775
1r	.
=776	=776
!LO:TX:t=cresc.	!
[1ee	<
=777	=777
1ee	.
=778	=778
[1ee	f
=779	=779
1ee	.
=780	=780
[1e [1cc#	p
=781	=781
[2e [2cc#	.
8eL 8cc#	.
==	==
*-	*-
